X:1
T:# / 2 haydn, psalm 50: the lord th'almighty monarch
%%score [ 1 2 3 ]
L:1/8
Q:1/4=120
M:2/2
K:C
V:1 treble nm="Soprano" snm="S"
V:2 treble nm="Alto" snm="A"
V:3 bass nm="Basso" snm="B"
V:1
 G4 | c4 c4 | %2
w: The|Lord, th'al-|
w: Re-|veal'd from|
w: Heav'n|from a-|
w: Th' ap-|plau- ding|
 d4"^Psalm 50""^The Lord , th' almighty Monarch, spake""^(""^from""^: Six english Psalms)" d4 | %3
w: might- y|
w: Si- on's|
w: bove shall|
w: heav'ns the|
 e6 d2 |"^Joseph Haydn""^1732 - 1809" c4"^," B4 |[M:2/2] A4 A4 | G4 G4 | c4 (B2 A2) | B4"^," d4 | %9
w: Mon- arch,|spake, and|bade the|earth the|sum- mons *|take, and|
w: sa- cred|bound, the|seat with|match- less|beau- ty *|crown'd, the|
w: hear his|call, and|thou, the|fast ter-|res- trial *|ball, and|
w: change- less|doom, while|God the|ba- lance|shall as *|sume, while|
 d4 c4 | c4 B4 | A6 A2 | !fermata!B4 G4 | B4 d4 | f4 d4 | B4 d4 | f8- | f8- | !fermata!f4 d4 | %19
w: bade the|earth the|sum- ons|take, far|as his|eyes the|realms sur-|vey||* of|
w: seat with|match- less|beau- ty|crown'd, our|God his|course shall|down- ward|bend,||* nor|
w: thou, the|fast ter-|res- trial|ball, while|man's whole|race their|judge shall|meet,||* in|
w: God the|ba- lance|shall as-|sume, in|full me-|mo- rial|shall re-|cord,||* and|
 (e2 f2) (g2 e2) | (d2 e2) (f2 d2) | c4 B4 | c6"^," c2 | c6 ^c2 | (d2 e2) (f2 d2) | c4 B4 | %26
w: ris- * ing *|and * de- *|clin- ing|day, of|ris- ing|and * de- *|clin- ing|
w: si- * lent *|to * his *|work de-|scend, nor|si- lent|to * his *|work de-|
w: count * less *|throngs * be- *|fore his|seat, in|count- less|throngs * be- *|fore his|
w: own * the *|jus- * tice *|of their|Lord, and|own the|jus- * tice *|of their|
 !fermata!c4 || %27
w: day.|
w: scend.|
w: seat.|
w: Lord.|
V:2
 G4 | c4 c4 | c4 B4 | c6 B2 | c4"^," G4 |[M:2/2] G4 F4 | F4 E4 | E4 ^F4 | G4"^," (G2 ^F2) | E4 E4 | %10
w: The|Lord, th'al-|might- y|Mon- arch,|spake, and|bade the|earth the|sum- mons|take, and *|bade the|
w: Re-|veal'd from|Si- on's|sa- cred|bound, the|seat with|match- less|beau- ty|crown'd, the *|seat with|
w: Heav'n|from a-|bove shall|hear his|call, and|thou, the|fast ter-|res- trial|ball, and *|thou, the|
w: Th' ap-|plau- ding|heav'ns the|change- less|doom, while|God the|ba- lance|shall as|sume, while *|God the|
 D6 G2 | G4 ^F4 | !fermata!G4 z4 | z8 | z4 G4 | f4 d4 | B4 G4 | f4 d4 | !fermata!B4 B4 | %19
w: earth the|sum- mons|take,||far|as his|eyes the|realms sur-|vey, of|
w: match- less|beau- ty|crown'd,||our|God his|course shall|down- ward|bend, nor|
w: fast ter-|res- trial|ball,||while|man's whole|race their|judge shall|meet, in|
w: ba- lance|shall as-|sume,||in|full me-|mo- rial|shall re-|cord, and|
 (c2 d2) (e2 c2) | (A2 G2) (F2 A2) | E4 (D2 F2) | E6"^," E2 | (F2 G2) (A2 _B2) | (A2 G2) (F2 A2) | %25
w: ris- * ing *|and * de- *|clin- ing *|day, of|ris- * ing *|and * de- *|
w: si- * lent *|to * his *|work de- *|scend, nor|si- * lent *|to * his *|
w: count _ less *|throngs * be- *|fore his *|seat, in|count- * less *|throngs * be- *|
w: own * the *|jus- * tice *|of their *|Lord, and|own * the *|jus- * tice *|
 E4 D4 | !fermata!E4 || %27
w: clin- ing|day.|
w: work de-|scend.|
w: fore his|seat.|
w: of their|Lord.|
V:3
 G,4 | C4 A,4 | F,4 G,4 | C,6 D,2 | E,4"^," E,4 |[M:2/2] F,4 D,4 | B,,4 C,4 | A,,4 D,4 | %8
w: The|Lord, th'al-|might- y|Mon- arch,|spake, and|bade the|earth the|sum- mons|
w: Re-|veal'd from|Si- on's|sa- cred|bound, the|seat with|match- less|beau- ty|
w: Heav'n|from a-|bove shall|hear his|call, and|thou, the|fast ter-|res- trial|
w: Th' ap-|plau- ding|heav'ns the|change- less|doom, while|God the|ba- lance|shall as|
 G,,4"^," B,,4 | C,4 (A,2 G,2) | ^F,4 G,4 | C4 D4 | !fermata!G,4 z4 | z4 =F4 | D4 B,4 | G,4 F,4 | %16
w: take, and|bade the *|earth the|sum- mons|take,|far|as his|eyes the|
w: crown'd, the|seat with *|match- less|beau- ty|crown'd,|our|God his|course shall|
w: ball, and|thou, the *|fast ter-|res- trial|ball,|while|man's whole|race their|
w: sume, while|God the *|ba- lance|shall as-|sume,|in|full me-|mo- rial|
 D,4 B,,4 | (G,,8 | !fermata!G,,4) (G,2 F,2) | (E,2 D,2) (C,2 E,2) | (F,2 E,2) (D,2 F,2) | %21
w: realms sur-|­-|vey, of *|ris- * ing *|and * de- *|
w: down- ward|bend,|* nor *|si- * lent *|to * his *|
w: judge shall|meet,|* in *|count _ less *|throngs * be- *|
w: shall re-|cord,|* and *|own * the *|jus- * tice *|
 G,4 G,,4 | C,4"^," _B,4 | (A,2 G,2) (F,2 E,2) | (F,2 E,2) (D,2 F,2) | G,4 G,,4 | !fermata!C,4 || %27
w: clin- ing|day, of|ris- * ing *|and * de- *|clin- ing|day.|
w: work de-|scend, nor|si- * lent *|to * his *|work de-|scend.|
w: fore his|seat, in|count- * less *|throngs * be- *|fore his|seat.|
w: of their|Lord, and|own * the *|jus- * tice *|of their|Lord.|

